X: 251
T: Dance of the Honeybees
C:Charlie Lennon
R:Hornpipe
M:4/4
L:1/8
K:D
BAG|"D"F2EF DFAF|"G"G2FG "Em"E3F|"G"GFGA (3Bcd ed|"A"cege cAGE|
"D"FGEF DFAF|"G"G2FG "Em"E3F|"G"GFGA (3Bcd ed|"A"cAGE "D"D:|
ABc|"D"dAaA fAdA|"G"GFEF "D"DEFA|"Em"Bee2 Bee2|(3Bcd ef "A7"gece|
"D"dAaA fAdA|"G"GFEF "D"DEFA|"Em"(3Bcd ef "G"gfed|"A"cAGE "D"D:|


